!!!OTL: 491. Der Nachtigallengesang.
!!!ARE: Europa, Mitteleuropa, Deutschland
!!!SCT: E0491
!!!TXL: @@DE
!!!YEM: Copyright 1995, estate of Helmut Schaffrath.
**kern	**text
*ICvox	*
*M6/4	*
*k[b-]	*
*F:	*
!LO:TX:a:t=Aug. Nörmininger's Handſchr. Tabulaturb. 1598.	!
{4cc	Viel
=1	=1
(4.cc	Wol-
8b-)	.
4a	-luſt
(4.b-/	mit
8a)	.
4g	ſich
=2	=2
(2a	brin-
4f)	.
(4.a	-get
8g)}	.
{4f	die
=3	=3
2g	fröh-
4f	-lich
8gL	Som-
8f	.
8e	.
8dJ	.
4e	-mer-
=4	=4
[2.f	-ʒeit;
2f]}	.
{4cc	Jm
=5	=5
(4.cc	grü-
8b-)	.
4a	-nen
(4.b-/	Wald
8a)	.
4g	jetʒt
=6	=6
(2a	ſin-
4f)	.
(4.a	-get
8g)}	.
{4f	wied-
=7	=7
2g	-rum
4f	vor
8gL	Freu-
8f	.
8e	.
8dJ	.
4e	-dig-
=8	=8
[2.f	-keit
2f]}	.
{8gL	Ohn
8aJ	.
=9	=9
2b-	Un-
4b-	-ter-
2b-	-laß,
4cc	mit
=10	=10
2dd	bel-
4cc	-lem
(4.dd	Schall,
8ee)}	.
{4ff	aus
=11	=11
(4.ee	ih-
8dd)	.
4cc	-rem
8ddL	Häls-
8cc	.
8bn	.
8aJ	.
4b	-lein
=12	=12
[2.cc	ʒart
2cc]}	.
{8gL	ſehr
8aJ	.
=13	=13
2b-	ſchön
4b-	und
2b-	fein
4cc	Frau
=14	=14
2dd	Nach-
4cc	-ti-
(4.dd	-gall,
8ee)}	.
{4ff	kein
=15	=15
(4.ee	Müh
8dd)	.
4cc	noch
8ddL	Fleiß
8cc	.
8bn	.
8aJ	.
4b	ſie
=16	=16
[2.cc	ſpart.
2cc]}	.
==	==
!!!AGN: Liebes - Lied
!!!ONB: ESAC (Essen Associative Code) Database: ERK1
!!!AMT: compound duple
!!!AIN: vox
!!!EED: Helmut Schaffrath
!!!EEV: 1.0
!!!GTL: Liebeslieder [Alte (aus dem 13. bis 17. Jahrh.) mit ihrem jungen Nachwuchs]
!!!URL-scan: https://rosdok.uni-rostock.de/mcrviewer/recordIdentifier/rosdok_ppn745177662/iview2/phys_0318.iview2?x=-445.812200956939&y=1266.8203795067966&scale=0.47662485746864275&rotation=0&layout=singlePageLayout
!!!ENC: Anna Maria Matuszewska
!!!EEV: 2024/10/12
*-	*-
